packages/dnb-ui-lib/assets/icons/widget_android.svg

<svg width="16" height="16" viewBox="0 0 16 16" fill="none" xmlns="http://www.w3.org/2000/svg">
<path d="M1.33338 2.41276C1.33338 2.03678 1.63817 1.73199 2.01414 1.73199H5.81927C6.19524 1.73199 6.50003 2.03678 6.50003 2.41276L6.50003 6.31913C6.50003 6.6951 6.19524 6.99989 5.81927 6.99989H2.01414C1.63816 6.99989 1.33337 6.6951 1.33337 6.31913L1.33338 2.41276Z" stroke="black" stroke-width="1.5"/>
<path d="M9.00003 4.55879C8.73417 4.29294 8.73417 3.8619 9.00003 3.59605L11.4411 1.15496C11.707 0.889106 12.138 0.889106 12.4039 1.15496L14.8449 3.59605C15.1108 3.8619 15.1108 4.29294 14.8449 4.55879L12.4039 6.99988C12.138 7.26573 11.707 7.26573 11.4411 6.99988L9.00003 4.55879Z" stroke="black" stroke-width="1.5"/>
<path d="M1.33338 10.1807C1.33338 9.80468 1.63817 9.49989 2.01414 9.49989H5.81927C6.19524 9.49989 6.50003 9.80468 6.50003 10.1807V13.9858C6.50003 14.3617 6.19524 14.6665 5.81927 14.6665H2.01414C1.63817 14.6665 1.33338 14.3617 1.33338 13.9858V10.1807Z" stroke="black" stroke-width="1.5"/>
<path d="M9.00003 10.1807C9.00003 9.80468 9.30482 9.49989 9.6808 9.49989H13.5872C13.9631 9.49989 14.2679 9.80468 14.2679 10.1807V13.9858C14.2679 14.3617 13.9631 14.6665 13.5872 14.6665H9.6808C9.30482 14.6665 9.00003 14.3617 9.00003 13.9858V10.1807Z" stroke="black" stroke-width="1.5"/>
</svg>

<svg width="16" height="16" viewBox="0 0 16 16" fill="none" xmlns="http://www.w3.org/2000/svg"><path d="M1.333 2.413a.68.68 0 01.681-.681H5.82a.68.68 0 01.681.68V6.32a.68.68 0 01-.68.68H2.013a.68.68 0 01-.68-.68V2.413zM9 4.559a.68.68 0 010-.963l2.441-2.441a.68.68 0 01.963 0l2.44 2.441a.68.68 0 010 .963l-2.44 2.44a.68.68 0 01-.963 0L9 4.56zM1.333 10.18a.68.68 0 01.681-.68H5.82a.68.68 0 01.681.68v3.806a.68.68 0 01-.68.68H2.013a.68.68 0 01-.68-.68V10.18zm7.667 0a.68.68 0 01.68-.68h3.907a.68.68 0 01.68.68v3.806a.68.68 0 01-.68.68H9.681a.68.68 0 01-.681-.68V10.18z" stroke="#000" stroke-width="1.5"/></svg>
